X:166
T:Laura And Athena
C:Hanneke Cassel
M:4/4
L:1/8
R:reel
K:Dmin
^cdfd AFDF | E2cE dEcE | ^cdfd AFDF | Ad2^c dAFA |
d2fd AFDF | E2cE dEcE | defe dcAF | GFEC D3A :|
^cdad bdad | d2ad bdad | c2gc acgc | c2ga- agfe |
B2fB gBfB |B2fg- gfed | ^cAce agfe | fgef dA=B^c |
dafd afda | bagf gfed | cgec gecg | agfe fedc |
ABfA BgAB | _aABB gBfB | e^deg agfe | fgef d3A |]
